X:1
T:I’ll praise my Maker while I’ve breath
T:I’ll praise my Maker while I’ve breath - Immortality (Almond Woolf)
C:Almond Woolf
Z:p21, An Original Set of
Z:Psalm and Hymn Tunes,
Z:Redruth: 1836
%%score [ 1 2 3 4 ]
L:1/8
M:2/2
K:C
V:1 treble nm="SOPRANO" snm="S."
V:2 treble nm="ALTO" snm="A."
V:3 treble-8 transpose=-12 nm="TENOR" snm="T."
V:4 bass nm="BASS" snm="B."
V:1
 z2 G2 | c4 A4 | G6 c2 | c4 B4 | c6"^["!p!"^]" c2 | A6 (GF) | E6 G2 | G4 ^F4 | G6!f! A2 | %9
w: The|Lord pours|eye- sight|on the|blind; The|Lord sup- *|ports the|faint- ing|mind; He|
w: I’ll|praise my|Ma- ker|while I’ve|breath, And|when my _|voice is|lost in|death, Praise|
w: Hap-|py the|man whose|hopes re-|ly On|Is- rael’s _|God; he|made the|sky, And|
 B2 d2 c2 A2 | B4 A4 | G4 z2 G2 | (G2 c2) (B2 d2) | (d2 c2) z2 d2 | (edcd e2) f2 | %15
w: sends the lab- ’ring|con- science|peace: He|helps _ the _|stran- * ger|in _ _ _ _ di-|
w: shall em- ploy my|no- bler|pow’rs: My|days _ of _|praise _ shall|ne’er _ _ _ _ be|
w: earth, and sea, with|all their|train. His|truth _ for _|e- * ver|stands _ _ _ _ se-|
 d6"^["!p!"^]" G2 | G2 F2 E2 c2 | c4 _B4 | A6"^["!f!"^]" c2 | c2 d2 (edcB | cBcd e2) d2 | c4 B4 | %22
w: stress, The|wi- dow, and the|fa- ther-|less, And|grants the pris- * * *|* * * * * ’ner|sweet re-|
w: past, While|life, or thought, or|be- ing|last, Or|im- mor- ta- * * *|* * * * * li-|ty en-|
w: cure: He|saves th’op- press’d, he|feeds the|poor, And|none shall find _ _ _|_ _ _ _ _ his|pro- mise|
 c4 |] %23
w: lease.|
w: dures.|
w: vain.|
V:2
 z2 E2 | E4 F4 | G6 G2 | F4 D4 | E6!p! E2 | F6 (ED) | C6 E2 | D4 C4 | B,6"^["!f!"^]" D2 | %9
w: The|Lord pours|eye- sight|on the|blind; The|Lord sup- *|ports the|faint- ing|mind; He|
w: I’ll|praise my|Ma- ker|while I’ve|breath, And|when my _|voice is|lost in|death, Praise|
w: Hap-|py the|man whose|hopes re-|ly On|Is- rael’s _|God; he|made the|sky, And|
 D2 D2 E2 E2 | D4 C4 | B,4 z2 E2 | E4 F4 | E4 z2 F2 | (GFEF G2) A2 | G6!p! E2 | E2 D2 C2 E2 | %17
w: sends the lab- ’ring|con- science|peace: He|helps the|stran- ger|in _ _ _ _ di-|stress, The|wi- dow, and the|
w: shall em- ploy my|no- bler|pow’rs: My|days of|praise shall|ne’er _ _ _ _ be|past, While|life, or thought, or|
w: earth, and sea, with|all their|train. His|truth for|e- ver|stands _ _ _ _ se-|cure: He|saves th’op- press’d, he|
 E4 E4 | F6!f! E2 | E2 F2 (GFED | EDEF G2) F2 | E4 D4 | E4 |] %23
w: fa- ther-|less, And|grants the pris- * * *|* * * * * ’ner|sweet re-|lease.|
w: be- ing|last, Or|im- mor- ta- * * *|* * * * * li-|ty en-|dures.|
w: feeds the|poor, And|none shall find _ _ _|_ _ _ _ _ his|pro- mise|vain.|
V:3
 z2 c2 | c4 c4 | c6 c2 | A4 G4 | G6 z2 | z8 | z8 | z8 | z4 z2 ^F2 | G2 G2 G2 G2 | G4 ^F4 | %11
w: The|Lord pours|eye- sight|on the|blind;||||He|sends the lab- ’ring|con- science|
w: I’ll|praise my|Ma- ker|while I’ve|breath,||||Praise|shall em- ploy my|no- bler|
w: Hap-|py the|man whose|hopes re-|ly||||And|earth, and sea, with|all their|
 G4 z2 c2 | c4 d4 | e4 z2 B2 | c6 c2 | B6 z2 | z8 | z8 | z8 | z4 z2"^["!f!"^]" G2 | G2 c2 c2 A2 | %21
w: peace: He|helps the|stran- ger|in di-|stress,||||And|grants the pris- ’ner|
w: pow’rs: My|days of|praise shall|ne’er be|past,||||Or|im- mor- ta- li-|
w: train. His|truth for|e- ver|stands se-|cure:||||And|none shall find his|
 G4 G4 | G4 |] %23
w: sweet re-|lease.|
w: ty en-|dures.|
w: pro- mise|vain.|
V:4
 z2 C,2 | C,4 F,4 | E,6 E,2 | F,4 G,4 | C,6 z2 | z8 | z8 | z8 | z4 z2 D,2 | G,2 G,2 C,2 C,2 | %10
w: The|Lord pours|eye- sight|on the|blind;||||He|sends the lab- ’ring|
w: I’ll|praise my|Ma- ker|while I’ve|breath,||||Praise|shall em- ploy my|
w: Hap-|py the|man whose|hopes re-|ly||||And|earth, and sea, with|
 D,4 D,4 | [G,,G,]4 z2 C,2 | C,4 G,4 | C,4 z2 G,2 | C6 C,2 | G,6"^[Instr.]" C,2 | C,4 C,4 | C,8 | %18
w: con- science|peace: He|helps the|stran- ger|in di-|stress, *|||
w: no- bler|pow’rs: My|days of|praise shall|ne’er be|past, *|||
w: all their|train. His|truth for|e- ver|stands se-|cure: *|||
"^Emendations: Original order of staves (shown in the first piece in the book) Tenor - Alto - Air - Bass: the alto part in thesource is notated in the treble clef an octave higher than sounding pitch.The first verse only of the text is given in the source. Subsequent verses have been editorially added: it is suggestedby the editor that if verses 2 and 3 are sung, the note sung on the second beat of bar 13 should be sustained into thethird beat, to avoid the crotchet rest which would otherwise fall between the syllables of a single word." F,6 z2 | %19
w: |
w: |
w: |
 z4 z2!f! G,2 | C2 G,2 E,2 F,2 | G,4 G,,4 | C,4 |] %23
w: And|grants the pris- ’ner|sweet re-|lease.|
w: Or|im- mor- ta- li-|ty en-|dures.|
w: And|none shall find his|pro- mise|vain.|

